public/img/Hero/Infinix_Soft.svg

<svg width="442" height="80" viewBox="0 0 442 80" fill="none" xmlns="http://www.w3.org/2000/svg">
<rect width="442.001" height="79" transform="translate(0 0.736328)" />
<path d="M64.3751 16.1821C57.4763 16.1821 51.2542 19.1608 46.9001 23.9102L54.6935 35.7838C56.3713 32.0733 60.0792 29.4887 64.3751 29.4887C70.2449 29.4887 75.0198 34.3098 75.0198 40.2364C75.0198 46.163 70.2449 50.984 64.3751 50.984C60.4062 50.984 57.124 48.6682 55.1117 45.5207C44.8598 29.4887 46.4058 31.7432 43.0882 26.5127C42.2823 25.2409 41.3141 23.923 41.0708 23.6645C36.7293 19.0584 30.6035 16.1821 23.8239 16.1821C10.6878 16.1821 0 26.9733 0 40.2364C0 53.4995 10.6878 64.2907 23.8239 64.2907C30.7581 64.2907 37.0081 61.2839 41.3648 56.4935L33.6246 44.4305C32.0025 48.2792 28.2211 50.984 23.8239 50.984C17.9541 50.984 13.1792 46.163 13.1792 40.2364C13.1792 34.3098 17.9541 29.4887 23.8239 29.4887C27.7396 29.4887 31.0597 31.7022 33.0163 34.8267C41.0581 47.6574 41.8058 48.6528 45.2856 54.1085C46.1828 55.5134 47.6325 57.3431 48.1065 57.7909C52.3669 61.8187 58.0897 64.2907 64.3751 64.2907C77.5112 64.2907 88.199 53.4995 88.199 40.2364C88.199 26.9733 77.5112 16.1821 64.3751 16.1821Z" fill="#DB3957"/>
<path d="M110.735 65.7363V18.8019H119.303V65.7363H110.735ZM127.638 65.7363V31.4647H135.387V38.2057L134.757 37.0087C135.555 34.9507 136.857 33.3967 138.663 32.3467C140.511 31.2547 142.652 30.7087 145.088 30.7087C147.608 30.7087 149.834 31.2547 151.766 32.3467C153.74 33.4387 155.273 34.9717 156.365 36.9457C157.457 38.8776 158.003 41.1246 158.003 43.6866V65.7363H149.75V45.6396C149.75 44.1276 149.456 42.8256 148.868 41.7336C148.28 40.6416 147.461 39.8016 146.411 39.2136C145.403 38.5836 144.206 38.2686 142.82 38.2686C141.477 38.2686 140.28 38.5836 139.23 39.2136C138.18 39.8016 137.361 40.6416 136.773 41.7336C136.185 42.8256 135.891 44.1276 135.891 45.6396V65.7363H127.638ZM168.951 65.7363V38.8356H162.903V31.4647H168.951V30.3307C168.951 27.7268 169.476 25.5218 170.526 23.7158C171.618 21.8678 173.13 20.4609 175.062 19.4949C176.994 18.5289 179.283 18.0459 181.929 18.0459C182.433 18.0459 182.979 18.0879 183.567 18.1719C184.197 18.2139 184.722 18.2769 185.142 18.3609V25.4798C184.722 25.3958 184.323 25.3538 183.945 25.3538C183.609 25.3118 183.294 25.2908 183 25.2908C181.152 25.2908 179.724 25.7108 178.716 26.5508C177.708 27.3488 177.204 28.6088 177.204 30.3307V31.4647H192.198V38.8356H177.204V65.7363H168.951ZM189.111 65.7363V31.4647H197.427V65.7363H189.111ZM204.295 65.7363V31.4647H212.044V38.2057L211.414 37.0087C212.212 34.9507 213.514 33.3967 215.32 32.3467C217.168 31.2547 219.31 30.7087 221.746 30.7087C224.266 30.7087 226.492 31.2547 228.424 32.3467C230.398 33.4387 231.931 34.9717 233.023 36.9457C234.115 38.8776 234.661 41.1246 234.661 43.6866V65.7363H226.408V45.6396C226.408 44.1276 226.114 42.8256 225.526 41.7336C224.938 40.6416 224.119 39.8016 223.069 39.2136C222.061 38.5836 220.864 38.2686 219.478 38.2686C218.134 38.2686 216.937 38.5836 215.887 39.2136C214.837 39.8016 214.018 40.6416 213.43 41.7336C212.842 42.8256 212.548 44.1276 212.548 45.6396V65.7363H204.295ZM241.639 65.7363V31.4647H249.892V65.7363H241.639ZM241.639 27.6218V18.8019H249.892V27.6218H241.639ZM254.425 65.7363L266.395 48.5375L254.362 31.4647H264.064L273.451 45.3246H269.104L278.491 31.4647H288.13L276.16 48.5375L288.067 65.7363H278.428L269.167 51.9395H273.388L264.127 65.7363H254.425Z" fill="white"/>
<path d="M307.199 17.1543L307.199 65.2628" stroke="white" stroke-width="0.916353"/>
<path d="M332.768 36.0112C331.684 36.0112 330.691 35.8127 329.79 35.4156C328.889 35.0032 328.125 34.4458 327.499 33.7433C326.873 33.0407 326.422 32.2542 326.147 31.3837L328.095 30.5818C328.507 31.6815 329.118 32.5291 329.927 33.1247C330.752 33.7051 331.714 33.9953 332.814 33.9953C333.486 33.9953 334.074 33.8883 334.578 33.6745C335.082 33.4607 335.471 33.1629 335.746 32.7811C336.036 32.384 336.181 31.9258 336.181 31.4066C336.181 30.6888 335.975 30.1237 335.563 29.7113C335.166 29.2837 334.578 28.963 333.799 28.7491L330.66 27.787C329.423 27.4052 328.476 26.8019 327.82 25.9772C327.163 25.1525 326.835 24.2056 326.835 23.1365C326.835 22.2048 327.056 21.3878 327.499 20.6852C327.957 19.9674 328.583 19.41 329.378 19.0129C330.187 18.6005 331.103 18.3943 332.127 18.3943C333.15 18.3943 334.074 18.5776 334.899 18.9442C335.739 19.3107 336.449 19.8071 337.029 20.4332C337.609 21.0441 338.037 21.7467 338.312 22.5408L336.388 23.3427C336.021 22.3805 335.471 21.655 334.738 21.1663C334.005 20.6623 333.142 20.4103 332.15 20.4103C331.539 20.4103 330.996 20.5172 330.523 20.731C330.065 20.9296 329.706 21.2274 329.446 21.6245C329.202 22.0063 329.08 22.4645 329.08 22.999C329.08 23.6252 329.278 24.1826 329.675 24.6714C330.072 25.1601 330.676 25.5343 331.485 25.7939L334.349 26.6415C335.693 27.0539 336.708 27.6419 337.396 28.4055C338.083 29.1691 338.427 30.116 338.427 31.2462C338.427 32.1778 338.182 33.0025 337.693 33.7204C337.22 34.4382 336.556 35.0032 335.7 35.4156C334.86 35.8127 333.883 36.0112 332.768 36.0112ZM349.869 36.0112C348.663 36.0112 347.532 35.7974 346.479 35.3698C345.425 34.9269 344.501 34.3083 343.707 33.5142C342.928 32.72 342.317 31.7884 341.874 30.7193C341.431 29.6349 341.21 28.459 341.21 27.1913C341.21 25.9084 341.431 24.7325 341.874 23.6634C342.317 22.5943 342.928 21.6627 343.707 20.8685C344.501 20.0743 345.417 19.4634 346.456 19.0358C347.51 18.6082 348.647 18.3943 349.869 18.3943C351.091 18.3943 352.221 18.6158 353.26 19.0587C354.313 19.4863 355.23 20.0972 356.009 20.8914C356.803 21.6703 357.421 22.5943 357.864 23.6634C358.322 24.7325 358.552 25.9084 358.552 27.1913C358.552 28.459 358.322 29.6349 357.864 30.7193C357.421 31.7884 356.803 32.72 356.009 33.5142C355.23 34.3083 354.313 34.9269 353.26 35.3698C352.221 35.7974 351.091 36.0112 349.869 36.0112ZM349.869 33.9265C350.816 33.9265 351.679 33.7585 352.458 33.4225C353.237 33.0713 353.909 32.5902 354.474 31.9793C355.054 31.3531 355.497 30.6353 355.803 29.8259C356.123 29.0011 356.284 28.123 356.284 27.1913C356.284 26.2597 356.123 25.3892 355.803 24.5797C355.497 23.7703 355.054 23.0601 354.474 22.4492C353.909 21.823 353.237 21.3419 352.458 21.006C351.679 20.6547 350.816 20.4791 349.869 20.4791C348.937 20.4791 348.082 20.6547 347.303 21.006C346.524 21.3419 345.845 21.823 345.264 22.4492C344.699 23.0601 344.256 23.7703 343.936 24.5797C343.615 25.3892 343.455 26.2597 343.455 27.1913C343.455 28.123 343.615 29.0011 343.936 29.8259C344.256 30.6353 344.699 31.3531 345.264 31.9793C345.845 32.5902 346.524 33.0713 347.303 33.4225C348.082 33.7585 348.937 33.9265 349.869 33.9265ZM361.826 35.7363V18.6693H372.639V20.731H364.071V26.2521H371.837V28.3139H364.071V35.7363H361.826ZM378.16 35.7363V20.731H373.533V18.6693H384.987V20.731H380.428V35.7363H378.16Z" fill="white"/>
</svg>

<svg width="442" height="80" fill="none" xmlns="http://www.w3.org/2000/svg"><path d="M0 .736h442.001v79H0z"/><path d="M64.375 16.182c-6.899 0-13.12 2.979-17.475 7.728l7.794 11.874c1.677-3.71 5.385-6.295 9.681-6.295 5.87 0 10.645 4.82 10.645 10.747s-4.775 10.748-10.645 10.748c-3.969 0-7.251-2.316-9.263-5.463-10.252-16.032-8.706-13.778-12.024-19.008-.806-1.272-1.774-2.59-2.017-2.849-4.342-4.606-10.467-7.482-17.247-7.482C10.688 16.182 0 26.973 0 40.236 0 53.5 10.688 64.291 23.824 64.291c6.934 0 13.184-3.007 17.54-7.797l-7.74-12.063c-1.622 3.848-5.403 6.553-9.8 6.553-5.87 0-10.645-4.821-10.645-10.748 0-5.926 4.775-10.747 10.645-10.747 3.916 0 7.236 2.213 9.192 5.338 8.042 12.83 8.79 13.826 12.27 19.282.897 1.404 2.346 3.234 2.82 3.682 4.26 4.028 9.984 6.5 16.27 6.5 13.135 0 23.823-10.791 23.823-24.055 0-13.263-10.688-24.054-23.824-24.054Z" fill="#DB3957"/><path d="M110.735 65.736V18.802h8.568v46.934h-8.568Zm16.903 0V31.465h7.749v6.74l-.63-1.196c.798-2.058 2.1-3.612 3.906-4.662 1.848-1.092 3.989-1.638 6.425-1.638 2.52 0 4.746.546 6.678 1.638a11.538 11.538 0 0 1 4.599 4.599c1.092 1.932 1.638 4.179 1.638 6.74v22.05h-8.253V45.64c0-1.512-.294-2.814-.882-3.906-.588-1.092-1.407-1.932-2.457-2.52-1.008-.63-2.205-.945-3.591-.945-1.343 0-2.54.315-3.59.945-1.05.588-1.869 1.428-2.457 2.52-.588 1.092-.882 2.394-.882 3.906v20.096h-8.253Zm41.313 0v-26.9h-6.048v-7.371h6.048V30.33c0-2.604.525-4.81 1.575-6.615a10.736 10.736 0 0 1 4.536-4.221c1.932-.966 4.221-1.45 6.867-1.45.504 0 1.05.043 1.638.127.63.042 1.155.105 1.575.189v7.119a6.11 6.11 0 0 0-1.197-.126 7.642 7.642 0 0 0-.945-.063c-1.848 0-3.276.42-4.284 1.26-1.008.798-1.512 2.058-1.512 3.78v1.134h14.994v7.37h-14.994v26.901h-8.253Zm20.16 0V31.465h8.316v34.271h-8.316Zm15.184 0V31.465h7.749v6.74l-.63-1.196c.798-2.058 2.1-3.612 3.906-4.662 1.848-1.092 3.99-1.638 6.426-1.638 2.52 0 4.746.546 6.678 1.638a11.538 11.538 0 0 1 4.599 4.599c1.092 1.932 1.638 4.179 1.638 6.74v22.05h-8.253V45.64c0-1.512-.294-2.814-.882-3.906-.588-1.092-1.407-1.932-2.457-2.52-1.008-.63-2.205-.945-3.591-.945-1.344 0-2.541.315-3.591.945-1.05.588-1.869 1.428-2.457 2.52-.588 1.092-.882 2.394-.882 3.906v20.096h-8.253Zm37.344 0V31.465h8.253v34.271h-8.253Zm0-38.114v-8.82h8.253v8.82h-8.253Zm12.786 38.114 11.97-17.199-12.033-17.072h9.702l9.387 13.86h-4.347l9.387-13.86h9.639l-11.97 17.073 11.907 17.198h-9.639l-9.261-13.797h4.221l-9.261 13.797h-9.702Z" fill="#fff"/><path d="M307.199 17.154v48.109" stroke="#fff" stroke-width=".916"/><path d="M332.768 36.011c-1.084 0-2.077-.198-2.978-.595a6.838 6.838 0 0 1-2.291-1.673 6.426 6.426 0 0 1-1.352-2.36l1.948-.801c.412 1.1 1.023 1.947 1.832 2.543.825.58 1.787.87 2.887.87.672 0 1.26-.107 1.764-.32.504-.214.893-.512 1.168-.894a2.27 2.27 0 0 0 .435-1.374c0-.718-.206-1.283-.618-1.696-.397-.427-.985-.748-1.764-.962l-3.139-.962c-1.237-.382-2.184-.985-2.84-1.81a4.431 4.431 0 0 1-.985-2.84c0-.932.221-1.75.664-2.452a4.636 4.636 0 0 1 1.879-1.672c.809-.413 1.725-.619 2.749-.619 1.023 0 1.947.184 2.772.55a6.29 6.29 0 0 1 2.13 1.49 5.77 5.77 0 0 1 1.283 2.107l-1.924.802c-.367-.962-.917-1.688-1.65-2.177-.733-.504-1.596-.756-2.588-.756-.611 0-1.154.107-1.627.321a2.39 2.39 0 0 0-1.077.893c-.244.382-.366.84-.366 1.375 0 .626.198 1.184.595 1.672.397.49 1.001.863 1.81 1.123l2.864.848c1.344.412 2.359 1 3.047 1.764.687.763 1.031 1.71 1.031 2.84 0 .932-.245 1.756-.734 2.474-.473.718-1.137 1.283-1.993 1.696-.84.397-1.817.595-2.932.595Zm17.101 0a8.927 8.927 0 0 1-3.39-.641 8.58 8.58 0 0 1-2.772-1.856 8.705 8.705 0 0 1-1.833-2.795c-.443-1.084-.664-2.26-.664-3.528 0-1.283.221-2.458.664-3.528.443-1.069 1.054-2 1.833-2.794a8.335 8.335 0 0 1 2.749-1.833c1.054-.428 2.191-.642 3.413-.642s2.352.222 3.391.665a8.047 8.047 0 0 1 2.749 1.832 8.268 8.268 0 0 1 1.855 2.772c.458 1.07.688 2.245.688 3.528 0 1.268-.23 2.444-.688 3.528a8.522 8.522 0 0 1-1.855 2.795 8.334 8.334 0 0 1-2.749 1.856c-1.039.427-2.169.641-3.391.641Zm0-2.085c.947 0 1.81-.168 2.589-.504a6.166 6.166 0 0 0 2.016-1.443 6.542 6.542 0 0 0 1.329-2.153 7.22 7.22 0 0 0 .481-2.635 7.04 7.04 0 0 0-.481-2.611 6.29 6.29 0 0 0-1.329-2.13 5.75 5.75 0 0 0-2.016-1.444c-.779-.351-1.642-.527-2.589-.527-.932 0-1.787.176-2.566.527a5.986 5.986 0 0 0-2.039 1.443 6.772 6.772 0 0 0-1.328 2.13 7.02 7.02 0 0 0-.481 2.612c0 .932.16 1.81.481 2.635.32.81.763 1.527 1.328 2.153a6.435 6.435 0 0 0 2.039 1.444c.779.335 1.634.503 2.566.503Zm11.957 1.81V18.67h10.813v2.062h-8.568v5.521h7.766v2.062h-7.766v7.422h-2.245Zm16.334 0V20.731h-4.627v-2.062h11.454v2.062h-4.559v15.005h-2.268Z" fill="#fff"/></svg>
